X: 3347
T: 22nd OF MARCH
%R: hornpiipe, reel
B: James Kerr "Merry Melodies" v.3 p.37 #347
Z: 2016 John Chambers <jc:trillian.mit.edu>
M: C
L: 1/8
K: G
D2 |\
DGGG GBdf | gfga gdBG |\
FGAB cedB |[1 A2A2A2 :|[2 G2G2G2 |:\
(DC) |\
B,DGD BGBG | FGAB cBcd |\
efge fgaf |[1 (gb)gd BG :|[2 g2b2g2 |]

%%sep 1 1 500
%%sep 1 1 500

